lib/brands/icons/brave.svg

<svg xmlns="http://www.w3.org/2000/svg" fill="none" aria-hidden="true" viewBox="0 0 48 48"><g id="brave-Icon"><g id="Group"><path id="Vector" fill="url(#paint0_linear_94_17280)" d="M39.5899 13.641L40.4788 11.3162C40.4788 11.3162 39.3164 10.0171 37.8805 8.5812C36.4446 7.1453 33.436 7.96581 33.436 7.96581L30.0172 4H24.0001H17.9831L14.5643 7.96581C14.5643 7.96581 11.5557 7.1453 10.1198 8.5812C8.68391 10.0171 7.52152 11.3162 7.52152 11.3162L8.54716 13.641L7.38477 17.0598C7.38477 17.0598 10.8036 30.3248 11.2138 31.9658C12.0343 35.1795 12.5813 36.4103 14.7694 37.9829C16.9574 39.5556 21.1284 42.4274 21.7437 42.8376C22.4275 43.2479 23.248 44 24.0001 44C24.7523 44 25.5728 43.2479 26.2566 42.8376C26.9403 42.4274 31.0429 39.6239 33.2309 37.9829C35.419 36.3419 36.0343 35.1111 36.7865 31.9658C37.1967 30.3248 40.6155 17.0598 40.6155 17.0598L39.5899 13.641Z"/><path id="Vector_2" fill="white" d="M24.0686 28.8889C24.2737 28.8889 25.778 29.4359 26.9404 30.0513C28.1028 30.6667 28.9916 31.0769 29.2651 31.282C29.5387 31.4872 29.4019 31.7607 29.1284 31.9658C28.8549 32.1709 25.5728 34.7692 25.231 35.0427C24.8891 35.3162 24.4104 35.7949 24.1369 35.7949C23.8634 35.7949 23.3164 35.3162 23.0429 35.0427C22.701 34.7692 19.419 32.1026 19.1455 31.9658C18.872 31.7607 18.7352 31.4872 19.0087 31.282C19.2822 31.0769 20.1028 30.6667 21.3335 30.0513C22.3592 29.3675 23.8634 28.8889 24.0686 28.8889ZM24.0686 10.1538C24.2053 10.1538 24.8207 10.2222 25.7096 10.4957C26.7352 10.8376 27.7609 11.2479 28.3079 11.2479C28.8549 11.2479 32.5472 10.4957 32.5472 10.4957C32.5472 10.4957 36.9233 15.8974 36.9233 17.0598C36.9233 18.2222 36.3763 18.4957 35.8293 19.1111C35.2822 19.7265 32.8207 22.3248 32.5472 22.6667C32.2053 23.0085 31.5899 23.4872 32.0002 24.4444C32.4104 25.3333 32.9575 26.5641 32.3421 27.7265C31.7267 28.8889 30.6327 29.7094 29.9489 29.5726C29.2651 29.4359 27.6241 28.547 27.0771 28.2051C26.4617 27.7949 24.6156 26.2222 24.6156 25.6068C24.6156 24.9914 26.5301 23.8974 26.9404 23.6923C27.2822 23.4188 28.9233 22.4615 28.9916 22.1197C28.9916 21.7778 28.9916 21.641 28.513 20.6838C28.0344 19.7265 27.1455 18.4957 27.2822 17.6752C27.419 16.8547 28.8549 16.4444 29.8122 16.0342C30.8378 15.6239 32.7523 14.9402 32.9575 14.8034C33.231 14.6667 33.1626 14.5983 32.4104 14.5299C31.6583 14.4615 29.607 14.188 28.6498 14.4615C27.6925 14.735 26.1199 15.1453 25.9831 15.3504C25.8463 15.5555 25.7096 15.6239 25.8463 16.3761C25.9831 17.1282 26.6669 20.6838 26.7352 21.2991C26.8036 21.9145 26.9404 22.3248 26.2566 22.5299C25.5728 22.6667 24.4788 22.9402 24.0686 22.9402C23.6583 22.9402 22.5643 22.6667 21.8805 22.5299C21.1968 22.3932 21.3335 21.9829 21.4019 21.2991C21.4703 20.6838 22.154 17.1282 22.2908 16.3761C22.4275 15.6239 22.2908 15.6239 22.154 15.4188C22.0173 15.2137 20.4446 14.8034 19.4874 14.5299C18.5301 14.2564 16.4788 14.5299 15.7267 14.5983C14.9746 14.6667 14.9062 14.8034 15.1797 14.8718C15.4532 15.0085 17.3677 15.6923 18.325 16.1026C19.3506 16.5128 20.7181 16.9231 20.8549 17.7436C20.9916 18.5641 20.1028 19.7949 19.6241 20.7521C19.1455 21.7094 19.1455 21.7778 19.1455 22.188C19.1455 22.5299 20.7865 23.4872 21.1968 23.7607C21.5387 24.0342 23.5216 25.1282 23.5216 25.6752C23.5216 26.2906 21.607 27.8632 21.06 28.2735C20.4446 28.6838 18.872 29.5043 18.1882 29.641C17.5045 29.7778 16.4104 28.9573 15.7951 27.7949C15.1797 26.6325 15.7267 25.4017 16.1369 24.5128C16.5472 23.6239 15.8634 23.0769 15.5899 22.735C15.2481 22.3932 12.8549 19.7949 12.3079 19.1795C11.7609 18.5641 11.2139 18.2906 11.2139 17.1282C11.2139 15.9658 15.5899 10.5641 15.5899 10.5641C15.5899 10.5641 19.2822 11.3162 19.8293 11.3162C20.3763 11.3162 21.4019 10.906 22.4275 10.5641C23.3164 10.1538 23.9318 10.1538 24.0686 10.1538Z"/><path id="Vector_3" fill="url(#paint1_linear_94_17280)" d="M33.5047 8.03426L30.0859 4.06845H24.0688H18.0517L14.6329 8.03426C14.6329 8.03426 11.6244 7.21375 10.1885 8.64965C10.1885 8.64965 14.2227 8.30777 15.5902 10.5642C15.5902 10.5642 19.2825 11.3163 19.8295 11.3163C20.3765 11.3163 21.4022 10.9061 22.4278 10.5642C23.4534 10.2223 24.0688 10.2223 24.0688 10.2223C24.0688 10.2223 24.7526 10.2223 25.7098 10.5642C26.7355 10.9061 27.7611 11.3163 28.3081 11.3163C28.8551 11.3163 32.5475 10.5642 32.5475 10.5642C33.915 8.30777 37.9492 8.64965 37.9492 8.64965C36.5133 7.14537 33.5047 8.03426 33.5047 8.03426Z"/></g></g><defs><linearGradient id="paint0_linear_94_17280" x1="7.37269" x2="40.7387" y1="23.9983" y2="23.9983" gradientUnits="userSpaceOnUse"><stop stop-color="#FF5500"/><stop offset="0.4099" stop-color="#FF5500"/><stop offset="0.582" stop-color="#FF2000"/><stop offset="1" stop-color="#FF2000"/></linearGradient><linearGradient id="paint1_linear_94_17280" x1="10.832" x2="37.9303" y1="7.65256" y2="7.65256" gradientUnits="userSpaceOnUse"><stop stop-color="#FF452A"/><stop offset="1" stop-color="#FF2000"/></linearGradient></defs></svg>

<svg xmlns="http://www.w3.org/2000/svg" fill="none" aria-hidden="true" viewBox="0 0 48 48"><path fill="url(#a)" d="m39.59 13.641.889-2.325s-1.163-1.299-2.599-2.735c-1.435-1.436-4.444-.615-4.444-.615L30.017 4H17.983l-3.419 3.966s-3.008-.82-4.444.615a76.333 76.333 0 0 0-2.598 2.735l1.025 2.325-1.162 3.419s3.419 13.265 3.829 14.906c.82 3.213 1.367 4.444 3.555 6.017a419.878 419.878 0 0 0 6.975 4.855C22.427 43.248 23.248 44 24 44c.752 0 1.573-.752 2.257-1.162.683-.41 4.786-3.214 6.974-4.855 2.188-1.641 2.803-2.872 3.555-6.017.41-1.641 3.83-14.906 3.83-14.906l-1.026-3.42Z"/><path fill="#fff" d="M24.069 28.889c.205 0 1.709.547 2.871 1.162 1.163.616 2.052 1.026 2.325 1.231.274.205.137.479-.137.684-.273.205-3.555 2.803-3.897 3.077-.342.273-.82.752-1.094.752-.274 0-.82-.479-1.094-.752-.342-.274-3.624-2.94-3.898-3.077-.273-.205-.41-.479-.136-.684.273-.205 1.094-.615 2.325-1.23 1.025-.684 2.53-1.163 2.735-1.163Zm0-18.735c.136 0 .752.068 1.64.342 1.026.342 2.052.752 2.599.752.547 0 4.24-.752 4.24-.752s4.375 5.401 4.375 6.564c0 1.162-.547 1.436-1.094 2.051-.547.616-3.008 3.214-3.282 3.556-.342.341-.957.82-.547 1.777.41.89.958 2.12.342 3.283-.615 1.162-1.71 1.982-2.393 1.846-.684-.137-2.325-1.026-2.872-1.368-.615-.41-2.461-1.983-2.461-2.598 0-.616 1.914-1.71 2.324-1.915.342-.273 1.983-1.23 2.052-1.572 0-.342 0-.479-.479-1.436s-1.368-2.188-1.23-3.009c.136-.82 1.572-1.23 2.53-1.64 1.025-.411 2.94-1.095 3.145-1.232.273-.136.205-.205-.548-.273-.752-.069-2.803-.342-3.76-.069-.957.274-2.53.684-2.667.89-.137.204-.273.273-.137 1.025.137.752.82 4.308.89 4.923.068.616.204 1.026-.48 1.23-.683.138-1.777.411-2.187.411-.41 0-1.505-.273-2.188-.41-.684-.137-.547-.547-.48-1.23.07-.616.753-4.172.89-4.924.136-.752 0-.752-.137-.957-.137-.205-1.71-.616-2.667-.89-.957-.273-3.008 0-3.76.07-.752.068-.82.204-.547.273.273.136 2.188.82 3.145 1.23 1.026.41 2.393.821 2.53 1.642.137.82-.752 2.05-1.23 3.008-.48.957-.48 1.026-.48 1.436 0 .342 1.642 1.3 2.052 1.573.342.273 2.325 1.367 2.325 1.914 0 .616-1.915 2.188-2.462 2.598-.615.41-2.188 1.231-2.872 1.368-.683.137-1.778-.684-2.393-1.846-.615-1.163-.068-2.393.342-3.282.41-.89-.274-1.436-.547-1.778-.342-.342-2.735-2.94-3.282-3.555-.547-.616-1.094-.89-1.094-2.052s4.376-6.564 4.376-6.564 3.692.752 4.24.752c.546 0 1.572-.41 2.598-.752.888-.41 1.504-.41 1.64-.41Z"/><path fill="url(#b)" d="m33.505 8.034-3.42-3.966H18.053l-3.42 3.966s-3.008-.82-4.444.616c0 0 4.035-.342 5.402 1.914 0 0 3.692.752 4.24.752.547 0 1.572-.41 2.598-.752 1.025-.342 1.64-.342 1.64-.342s.685 0 1.642.342c1.025.342 2.051.752 2.598.752.547 0 4.24-.752 4.24-.752C33.916 8.308 37.95 8.65 37.95 8.65c-1.436-1.505-4.444-.616-4.444-.616Z"/><defs><linearGradient id="a" x1="7.373" x2="40.739" y1="23.998" y2="23.998" gradientUnits="userSpaceOnUse"><stop stop-color="#F50"/><stop offset=".41" stop-color="#F50"/><stop offset=".582" stop-color="#FF2000"/><stop offset="1" stop-color="#FF2000"/></linearGradient><linearGradient id="b" x1="10.832" x2="37.93" y1="7.653" y2="7.653" gradientUnits="userSpaceOnUse"><stop stop-color="#FF452A"/><stop offset="1" stop-color="#FF2000"/></linearGradient></defs></svg>
